packages/dnb-ui-lib/assets/icons/coins_1_medium.svg

<svg width="24" height="24" viewBox="0 0 24 24" fill="none" xmlns="http://www.w3.org/2000/svg">
<path d="M1 3.75V18.689M1 3.75C1 5.13071 4.35786 6.25 8.5 6.25C12.6421 6.25 16 5.13071 16 3.75M1 3.75C1 2.36929 4.35786 1.25 8.5 1.25C12.6421 1.25 16 2.36929 16 3.75M1 3.75V8.68903M1 18.689C1 20.1033 4.358 21.25 8.5 21.25H9.55397M1 18.689V13.689M16 3.75V11.2195M16 3.75V8.68903M1 13.689C1 15.0131 3.94353 16.1027 7.71813 16.2363H8M1 13.689V8.68903M1 8.68903C1 10.1033 4.358 11.25 8.5 11.25C12.642 11.25 16 10.1033 16 8.68903M16 8.68903V11.2195M16 11.2195V12.5055M8 15C8 13.6193 11.3579 12.5 15.5 12.5C15.668 12.5 15.8347 12.5018 16 12.5055M8 15C8 16.4142 11.358 17.561 15.5 17.561C19.642 17.561 23 16.4142 23 15M8 15V16.2363M23 15V19.689C23 21.1033 19.642 22.25 15.5 22.25C13.0787 22.25 10.9252 21.8581 9.55397 21.25M23 15C23 13.6753 19.909 12.5912 16 12.5055M8 16.2363V19.689C8 20.2765 8.5795 20.8179 9.55397 21.25" stroke="black" stroke-width="1.5" stroke-linecap="round" stroke-linejoin="round"/>
</svg>

<svg width="24" height="24" viewBox="0 0 24 24" fill="none" xmlns="http://www.w3.org/2000/svg"><path d="M1 3.75v14.939M1 3.75c0 1.38 3.358 2.5 7.5 2.5 4.142 0 7.5-1.12 7.5-2.5m-15 0c0-1.38 3.358-2.5 7.5-2.5 4.142 0 7.5 1.12 7.5 2.5m-15 0v4.939m0 10c0 1.414 3.358 2.561 7.5 2.561h1.054M1 18.689v-5M16 3.75v7.47m0-7.47v4.939m-15 5c0 1.324 2.944 2.414 6.718 2.547H8M1 13.69v-5m0 0c0 1.414 3.358 2.561 7.5 2.561 4.142 0 7.5-1.147 7.5-2.561m0 0v2.53m0 0v1.287M8 15c0-1.38 3.358-2.5 7.5-2.5.168 0 .335.002.5.005M8 15c0 1.414 3.358 2.561 7.5 2.561 4.142 0 7.5-1.147 7.5-2.561M8 15v1.236M23 15v4.689c0 1.414-3.358 2.561-7.5 2.561-2.421 0-4.575-.392-5.946-1M23 15c0-1.325-3.091-2.409-7-2.495m-8 3.731v3.453c0 .587.58 1.129 1.554 1.561" stroke="#000" stroke-width="1.5" stroke-linecap="round" stroke-linejoin="round"/></svg>
